**kern	**kern	**dynam
*part1	*part1	*part1
*staff2	*staff1	*
*I"Piano	*	*
*clefF4	*clefG2	*
*k[b-e-a-d-]	*k[b-e-a-d-]	*
=1	=1	=1
4FF 4F	4A- 4c	.
8FF 8F	8A- 8c	.
4FF 4F	4A- 4c	.
8FF 8F	8A- 8c	.
=	=	=
4CC	4c 4en 4g	.
8CC	8c 8e 8g	.
4.CC	4.c 4.e 4.g	.
=	=	=
2FF; 2F	2A-; 2c 2f	.
8r;	8r;	.
8r	8r	.
=||	=||	=||
*M3/8	*M3/8	*
4.FF 4.F	8AnL<	p
.	8B-<	.
.	8cJ<	.
=	=	=
4.FF 4.F	4.f	.
=	=	=
4.FF 4.F	8B-L<	.
.	8dn<	.
.	8enJ	.
=	=	=
4.FF 4.F	4.f	.
=	=	=
8FFL 8C	4.An 4.c 4.e- 4.f	.
8E-	.	.
8FJ	.	.
=	=	=
*-	*-	*-
!!!system-decoration: {(s1,s2)}
!!!RDF**kern: < = below
